!!!!SEGMENT: pl-sa--576-a-ix-56--004_anonim--mazur.krn
!!!cenid: 18xx:633
!!!COM: Anonim
!!!COM-rismid: pe30004985
!!!CDT:
!!!CNT:
!!!OTL: Mazur
!!!PDT:
!!!AGN: Secular; Mazurka
!!!SMS-siglum: PL-SA
!!!SMS-shelfmark: 576/A IX 56
!!!SMS-shelfwork: 004 W
!!!SMS-variant:
!!!SMS-altvar:
!!!NIFC-rismid: 1001109912
!!!system-decoration: {(s1,s2)}
**kern	**kern	**dynam
*part1	*part1	*part1
*staff2	*staff1	*
*	*I"Piano	*
*clefF4	*clefG2	*
*k[f#c#]	*k[f#c#]	*
*M3/8	*M3/8	*
*>[A,A,B,B,C,C,D,E,D,E,A,A,B,B]	*>[A,A,B,B,C,C,D,E,D,E,A,A,B,B]	*
=1	=1	=1
*>A	*>A	*
*	*ped	*
*tremolo	*	*
!	!LO:TX:a:Bi:t=Mazur	!
!	!LO:TUP:a:problem:klamra łukowa	!
8D 8AA 8DD/L	24a\LL	f
.	24b\	.
.	24cc#\JJ	.
8D 8AA 8DD/	8dd\L	.
8D 8AA 8DD/J	16ff#\L	.
.	16gg#X\JJ	.
=2	=2	=2
*rep	*	*
.	8qbb/	.
8D 8AA 8DD/L	16aa\LL	.
.	16gg#X\JJ	.
8D 8AA 8DD/	8.aa\L	.
8D 8AA 8DD/J	.	.
.	16ff#\Jk	.
*Xrep	*	*
=3	=3	=3
*rep	*	*
.	8qbb/	.
8D 8AA 8DD/L	16aa\LL	.
.	16gg#X\	.
8D 8AA 8DD/	16aa\	.
.	16bb\	.
8D 8AA 8DD/J	16ff#\	.
.	16gg#\JJ	.
*Xrep	*	*
=4	=4	=4
*rep	*	*
.	8qbb/	.
8D 8AA 8DD/L	16aa\LL	.
.	16gg#X\JJ	.
8D 8AA 8DD/	8.aa\L	.
8D 8AA 8DD/J	.	.
.	16ff#\Jk	.
*Xrep	*	*
=5	=5	=5
*rep	*	*
.	8qbb/	.
8D 8AA 8DD/L	16aa\LL	.
.	16gg#X\	.
8D 8AA 8DD/	16aa\	.
.	16bb\	.
8D 8AA 8DD/J	16ff#\	.
.	16gg#\JJ	.
*Xrep	*	*
*Xtremolo	*	*
=6	=6	=6
16D 16AA 16DD/	16aa\	.
!	!LO:N:vis=8	!
16r	16r	.
4D 4AA 4DD/	4ddd 4aa 4ff# 4dd\	.
=7:|!|:	=7:|!|:	=7:|!|:
*>B	*>B	*
8A 8AA/	16.ccc#\LL	.
.	32ee\JJk	.
8gL 8e 8c# 8A\	8gg\L	.
!	!LO:TUP:a:problem:klamra łukowa	!
8gJ 8e 8c# 8A\	24gg\L	.
.	24ff#\	.
.	24ee\JJ	.
=8	=8	=8
8D\	16.dd\LL	.
.	32ff#\JJk	.
8f#L 8d 8A\	8dd\L	.
!	!LO:TUP:a:problem:klamra łukowa	!
8f#J 8d 8A\	24dd\L	.
.	24cc#\	.
.	24b\JJ	.
!!LO:LB:g=original
=9	=9	=9
8AA\	16.a\LL	.
.	32cc#\JJk	.
8gL 8e 8c# 8A\	8.ee\L	.
8gJ 8e 8c# 8A\	.	.
.	16cc#\Jk	.
=10	=10	=10
8D\	16.dd\LL	.
.	32ff#\JJk	.
8f#L 8d 8A\	8aa\L	.
8f#J 8d 8A\	8ddd\J	.
=11	=11	=11
8AA/	16.ccc#\LL	.
.	32ee\JJk	.
8gL 8e 8c# 8A\	8gg\L	.
!	!LO:TUP:a:problem:klamra łukowa	!
8gJ 8e 8c# 8A\	24gg\L	.
.	24ff#\	.
.	24ee\JJ	.
=12	=12	=12
8D\	16.dd\LL	.
.	32ff#\JJk	.
8f#L 8d 8A\	8dd\L	.
!	!LO:TUP:a:problem:klamra łukowa	!
8f#J 8d 8A\	24dd\L	.
.	24cc#\	.
.	24b\JJ	.
=13	=13	=13
.	8qb/	.
8AA/	(<16a/LL	.
.	16g#X/	.
8gL 8e 8c# 8A\	16a/	.
.	16cc#/	.
8gJ 8e 8c# 8A\	16ee/	.
.	16cc#/JJ)	.
=14	=14	=14
16f# 16d\	16dd\	.
16r	16r	.
!	!LO:TX:b:Bi:t=fin	!
4d 4A 4F# 4D\	4ddd 4aa 4ff# 4dd\	.
=15:|!|:	=15:|!|:	=15:|!|:
*>C	*>C	*
16E 16EE/	16ee 16b 16g#X 16e\	.
16r	16r	.
16d 16B 16G#X 16E\	16b 16g# 16e/	.
16r	16r	.
16d 16B 16G# 16E\	16dd 16b 16g# 16e/	.
16r	16r	.
=16	=16	=16
8AA/	16cc#\LL	.
.	8qdd/	.
.	16cc#\JJ	.
8c#L 8A 8E\	8b\L	.
8c#J 8A 8E\	8a\J	.
=17	=17	=17
8EE/	16.g#X/LL	.
.	32g#/JJk	.
8dL 8B 8G#X 8E\	8f#/L	.
8dJ 8B 8G# 8E\	8e/J	.
!!LO:LB:g=original
=18	=18	=18
8AA/	(>16a\LL	.
.	16cc#\	.
8c#L 8A 8E\	16ee\	.
.	16aa\	.
8c#J 8A 8E\	16ccc#\)	.
.	16fff#\JJ	.
=19	=19	=19
16E 16EE/	16eee\	.
!	!LO:N:vis=8	!
16r	16r	.
!LO:SIC:n=3:s=16G#:v	!	!
16d 16B 16G 16E\	16bb 16gg 16ee\	.
16r	16r	.
16d 16B 16G# 16E\	16ddd 16bb 16gg 16ee\	.
16r	16r	.
=20	=20	=20
8AA/	16ccc#\LL	.
.	8qgg/	.
.	16ccc#\JJ	.
8c#L 8A 8E\	8bb\L	.
8c#J 8A 8E\	8aa\J	.
=21	=21	=21
!	!LO:TUP:a:problem:klamra łukowa	!
8EE/	24gg#X\LL	.
.	24ff#\	.
.	24gg#\JJ	.
8dL 8B 8G#X 8E\	8ee\L	.
8dJ 8B 8G# 8E\	16ff#\L	.
.	16gg#\JJ	.
=22	=22	=22
16c# 16A\	16aa\	.
16r	16r	.
4A 4AA/	4aa 4ee 4cc# 4a\	.
=23:|!|:	=23:|!|:	=23:|!|:
*>D	*>D	*
*tremolo	*	*
8A 8F# 8D\L	16.a\LL	.
.	32cc#\JJk	.
8A 8F# 8D\	8dd\L	.
8A 8F# 8D\J	8ff#\J	.
=24	=24	=24
8A 8E 8C# 8AA\L	16.ee\LL	.
.	32gg#X\JJk	.
8A 8E 8C# 8AA\	8bb\L	.
8A 8E 8C# 8AA\J	8aa\J	.
=25	=25	=25
8A 8F# 8D\L	16ff#\LL	.
.	16cc#\JJ	.
8A 8F# 8D\	8dd\L	.
.	8qee/	.
8A 8F# 8D\J	16dd\L	.
.	16cc#\JJ	.
*Xtremolo	*	*
=26	=26	=26
8AL 8E 8C# 8AA\	16a\LL	.
.	16cc#\JJ	.
8A 8E 8C# 8AA\	8ff#\L	.
8AJ 8F# 8D\	8dd\J	.
=27||	=27||	=27||
*>E	*>E	*
*k[f#]	*k[f#]	*
*M3/8	*M3/8	*
!	!LO:TX:a:Bi:t=Trio:rj	!
!	!LO:TX:b:Bi:t=dol	!
8G 8GG/	16b\LL	.
.	16cc\JJ	.
8dL 8B 8G\	8.dd\L	.
8dJ 8B 8G\	.	.
.	16cc\Jk	.
=28	=28	=28
*rep	*	*
.	8qee/	.
8G 8GG/	16dd\LL	.
.	16cc#X\JJ	.
8dL 8B 8G\	8.dd\L	.
8dJ 8B 8G\	.	.
.	16b\Jk	.
*Xrep	*	*
!!LO:LB:g=original
=29	=29	=29
.	8qaa/	.
8c 8C\	16gg\LL	.
.	16ff#\JJ	.
8eL 8c 8G\	8.gg\L	.
8eJ 8c 8G\	.	.
.	16ee\Jk	.
=30	=30	=30
8G 8GG/	16ee\LL	.
.	16dd\JJ	.
8dL 8B 8G\	4b\	.
8dJ 8B 8G\	.	.
=31	=31	=31
8D\L	16dd\LL	.
.	16cc\JJ	.
8c 8A 8F#\	8.a\L	.
8cJ 8A 8F#\	.	.
!LO:TX:a:t=P:w źródle niewidoczna kreska taktowa:problem	!	!
.	16aa\Jk	.
=32	=32	=32
8G\L	16bb\LL	.
.	16ff#\JJ	.
8d 8B\	8.gg\L	.
8dJ 8B\	.	.
.	16b\Jk	.
=33	=33	=33
8D\L	16ee\LL	.
.	16dd\JJ	.
!	!LO:TX:a:t=P:mixed beam:problem	!
8c 8A 8F#\	8.cc\L	.
8cJ 8A 8F#\	.	.
.	16f#/Jk	.
=34	=34	=34
8G\L	16g\LL	.
.	16b\JJ	.
8d 8B\	8ee\L	.
8dJ 8B\	8dd\J	.
=35	=35	=35
8D\L	16.dd\LL	.
.	32cc\JJk	.
8c 8A 8F#\	8.a\L	.
8cJ 8A 8F#\	.	.
.	16aa\Jk	.
=36	=36	=36
8G\L	16bb\LL	.
.	16ff#\	.
8d 8B\	16aa\	.
.	16gg\	.
8dJ 8B\	16ff#\	.
.	16ee\JJ	.
=37	=37	=37
8D\L	16ee\LL	.
.	16dd\JJ	.
!	!LO:TX:a:t=P:mixed beam:problem	!
8c 8A 8F#\	8.cc\L	.
8cJ 8A 8F#\	.	.
.	16f#/Jk	.
=38	=38	=38
8B 8G\	16a/LL	.
.	16g/JJ	.
4GG/	4g/	.
!	!LO:TX:b:Bi:t=DaCapo Mazur \n alfin	!
==:|!	==:|!	==:|!
*-	*-	*-
!!title: @{OTL};
!!!RDF**kern: > = above
!!!RDF**kern: < = below
!!!EED: Wojciech Jakubiak-Danek
!!!EST: 2020-12-10
!!!URL-scan: http://bc.bdsandomierz.pl/dlibra/publication/1384/edition/1352/content
!!!ONB-nifc: Str. 3
!!!ENC: Kamil Watkowski
!!!END: 2020-06-19
